!!!OTL: ES KAM VON EINER NEUSTADT HER
!!!ARE: Europa, Mitteleuropa, Deutschland, Glogau, Liegnitz
!!!SCT: E0200
!!!YEM: Copyright 1995, estate of Helmut Schaffrath.
**kern
*ICvox
*Ivox
*M3/4
*k[b-]
*F:
{8c
=1
8f
8c
8f
8a
4cc
=2
8b-
8g
4f
8r}
{8f
=3
8e
8f
4g
4cc
=4
8cc
8bn
4cc
8r}
{8a
=5
8b-
8cc
4.dd
8cc
=6
8b-
8dd
4.cc}
{8b-
=7
8a
8g
8f
8g
8b-
8a
=8
8a
8g
4f
8r}
==
!!!AGN: erzaehlendes Volks - Lied, Tod, Toten - Sage, Grabesstimme
!!!ONB: ESAC (Essen Associative Code) Database: ERK1
!!!AMT: simple triple
!!!AIN: vox
!!!EED: Helmut Schaffrath
!!!EEV: 1.0
*-
